FINK
CUT[WENN DAS ERSTE VOEGLEIN SINGT]
REG[Europa, Mitteleuropa, Deutschland]
KEY[F0246  16  F 3/4]
MEL[  5_.4#6__.5_  5_-7_2__0__
    7__.6_5_4_  3_.45__0__
    +1_7_6_5_4_.3  2_0_
    6___  ^_5_4_2_-6_-7_  1__0__
    3_.4  5__.3_6_5_  5__2__
    2_.3  4_2_7__.6_  5___0__
    3_.5+1__.+1_  +1_.22___
    5_5#_7_6_4_2_  1__0__
    -7_2_  5_4#_6_5_2__
    -7_1_2_3_4_5_  6__
    +1_+1_7_6_  6_5+13__.0_
    7_6_6_5_4_2_  1___0__ //] >>
FCT[Jugend - Lied, Jahreszeiten, Fruehling]
